X:47
T:Lovely Nancy. JaW.047
M:3/4
L:1/8
Q:3/4=30
S:James Winder Ms, Lancashire, 1835-41
R:.Air
O:England
A:Wyresdale,Lancashire
Z:vmp.Chris Partington, Aug 2004
K:G
B>A|G2G2GB|A2A2(AB/c/)|B2(ge) (dc)|A4B>A|!
G2G2(dB)|A2A2(ge)|(d>e) (d>B)A>B|G4:|!
|:B>c|d2d2ge|d4(B>c)|d2d2(gB)|A4B>A|!
G2G2(dB)|A2A2(cd/e/)|(d>e) (d>B) (A>B)|”sic”B4:|

